svg/fluentui-system-icons/ic_fluent_search_shield_20_filled.svg

<svg width="20" height="20" viewBox="0 0 20 20" fill="none" xmlns="http://www.w3.org/2000/svg">
<path d="M8.5 3C11.5376 3 14 5.46243 14 8.5C14 9.74832 13.5841 10.8995 12.8834 11.8226L17.0303 15.9697C17.3232 16.2626 17.3232 16.7374 17.0303 17.0303C16.7641 17.2966 16.3474 17.3208 16.0538 17.1029L15.9697 17.0303L11.8226 12.8834C11.2834 13.2927 10.6663 13.6048 9.99759 13.7936C9.9992 13.7243 10 13.6545 10 13.5844V12.2092C11.4659 11.6159 12.5 10.1787 12.5 8.5C12.5 6.29086 10.7091 4.5 8.5 4.5C6.43092 4.5 4.72877 6.07098 4.52125 8.08521C4.32897 8.15591 4.14898 8.27061 3.99657 8.42931C3.68165 8.75722 3.36516 9.01321 3.04478 9.20511C3.01523 8.97424 3 8.7389 3 8.5C3 5.46243 5.46243 3 8.5 3ZM7 10.3471C6.65565 10.2024 6.32249 10.0083 6 9.76439C5.75517 9.57919 5.51649 9.36524 5.28372 9.12231C5.12757 8.95936 4.87414 8.95921 4.71782 9.12198C3.72333 10.1575 2.62338 10.6667 1.4 10.6667C1.17909 10.6667 1 10.8532 1 11.0833V13.5844L1.00437 13.8497C1.03093 14.6466 1.17831 15.364 1.44469 16C1.59527 16.3595 1.78387 16.693 2.01017 17C2.28467 17.3724 2.61463 17.706 2.99947 18C3.52307 18.4 4.14824 18.7268 4.87351 18.9786C4.95562 19.0071 5.04438 19.0071 5.12649 18.9786C7.68699 18.0896 9 16.2663 9 13.5844V11.0833L8.99187 10.9994C8.95457 10.8095 8.7933 10.6667 8.6 10.6667C8.39657 10.6667 8.19659 10.6526 8 10.6245C7.6565 10.5753 7.32332 10.4829 7 10.3471Z" fill="#212121"/>
</svg>

<svg xmlns="http://www.w3.org/2000/svg" width="20" height="20"><path d="M8.5 3a5.5 5.5 0 0 1 4.383 8.823l4.147 4.147a.75.75 0 0 1-.976 1.133l-.084-.073-4.147-4.147c-.54.41-1.157.722-1.825.91l.002-.209V12.21a4.001 4.001 0 1 0-5.479-4.124c-.192.07-.372.186-.524.344a4.625 4.625 0 0 1-.952.776A5.5 5.5 0 0 1 8.5 3ZM7 10.347a4.633 4.633 0 0 1-1-.583 6.05 6.05 0 0 1-.716-.642.389.389 0 0 0-.566 0c-.995 1.036-2.095 1.545-3.318 1.545-.22 0-.4.186-.4.416v2.501l.004.266c.027.797.174 1.514.44 2.15A4.812 4.812 0 0 0 3 18c.524.4 1.15.727 1.875.979.082.028.17.028.252 0C7.687 18.089 9 16.266 9 13.584v-2.5l-.008-.085a.405.405 0 0 0-.392-.332 4.057 4.057 0 0 1-1.6-.32Z"/></svg>
